apps/scalable/openarena.svg

<svg viewBox="0 0 48 48" xmlns="http://www.w3.org/2000/svg" xmlns:xlink="http://www.w3.org/1999/xlink"><linearGradient id="a" gradientTransform="matrix(0 -.93478259 .9347826 0 1.565216 46.43478)" gradientUnits="userSpaceOnUse" x1=".86985" x2="47.130146" y1="23.644154" y2="24.039539"><stop offset="0" stop-color="#52b8d2"/><stop offset="1" stop-color="#5df"/></linearGradient><linearGradient id="b" gradientUnits="userSpaceOnUse" x1="24.037891461535" x2="23.810544128992" y1="1.606259872891" y2="46.696868466054"><stop offset="0" stop-color="#fff"/><stop offset="1" stop-color="#ececec"/></linearGradient><path d="m24 2.5c11.874543 0 21.5 9.625457 21.5 21.5s-9.625457 21.5-21.5 21.5-21.5-9.625457-21.5-21.5 9.625457-21.5 21.5-21.5z" fill="url(#a)"/><path d="m23.947266 14.4375c-3.040139.000316-6.077778.740924-8.394532 2.195312-4.624056 2.904-5.338426 7.731926-1.929687 11.140626l1.912109 1.912109-1.136718 1.996094 13.464843 13.464843c8.446222-1.533217 15.168632-7.995354 17.082031-16.302734l-10.748046-10.748047c-.525411-.5254-1.144361-1.01639-1.855469-1.462891-2.316754-1.454388-5.351482-2.192099-8.392578-2.195312z" fill-opacity=".078431"/><path d="m24 14.435833c-3.040792.0029-6.07775.738875-8.395 2.193625-5.093542 3.198917-5.443333 8.733292-.763792 12.1325.430292.306667.819375.595125.86825.6325l-1.29375 2.276042h1.4375l8.145834-13.298792 8.145833 13.298792h1.4375l-1.29375-2.276042c.04887-.03738.437958-.325833.86825-.6325 4.679542-3.399208 4.32975-8.934541-.763792-12.1325-2.31725-1.45475-5.35325-2.19075-8.395-2.193625m-.924791 1.608084-5.611042 10.369166c-.131292.119792-1.478708-.830875-2.15625-1.52375-3.43275-3.515166 0-7.928291 6.79075-8.766833.520375-.05654.9775-.07858.9775-.07858zm1.849583 0s .457125.02204.9775.07858c6.79075.838542 10.2235 5.251667 6.79075 8.766833-.677542.692875-2.024958 1.643542-2.15625 1.52375zm-.924792 7.002541-2.395833 4.310584 2.395833 4.314416 2.395834-4.314416" fill="#fff"/><path d="m24 1.958333c12.173708 0 22.041667 9.867959 22.041667 22.041667s-9.867959 22.041667-22.041667 22.041667-22.0416667-9.867959-22.0416667-22.041667 9.8679587-22.041667 22.0416667-22.041667z" fill="none" stroke="url(#b)" stroke-width="1.916667"/></svg>

<?xml version="1.0" encoding="UTF-8" standalone="no"?>
<svg
   xmlns:dc="http://purl.org/dc/elements/1.1/"
   xmlns:cc="http://creativecommons.org/ns#"
   xmlns:rdf="http://www.w3.org/1999/02/22-rdf-syntax-ns#"
   xmlns:svg="http://www.w3.org/2000/svg"
   xmlns="http://www.w3.org/2000/svg"
   xmlns:xlink="http://www.w3.org/1999/xlink"
   xmlns:sodipodi="http://sodipodi.sourceforge.net/DTD/sodipodi-0.dtd"
   xmlns:inkscape="http://www.inkscape.org/namespaces/inkscape"
   viewBox="0 0 48 48"
   id="svg2"
   version="1.1"
   inkscape:version="0.91 r13725"
   sodipodi:docname="openarena.svg"
   inkscape:export-filename="/home/spooky/openarea.png"
   inkscape:export-xdpi="240"
   inkscape:export-ydpi="240">
  <metadata
     id="metadata51">
    <rdf:RDF>
      <cc:Work
         rdf:about="">
        <dc:format>image/svg+xml</dc:format>
        <dc:type
           rdf:resource="http://purl.org/dc/dcmitype/StillImage" />
        <dc:title />
      </cc:Work>
    </rdf:RDF>
  </metadata>
  <sodipodi:namedview
     pagecolor="#dcdcdc"
     bordercolor="#666666"
     borderopacity="1"
     objecttolerance="10"
     gridtolerance="10"
     guidetolerance="10"
     inkscape:pageopacity="0"
     inkscape:pageshadow="2"
     inkscape:window-width="640"
     inkscape:window-height="480"
     id="namedview49"
     showgrid="false"
     inkscape:zoom="6.3229167"
     inkscape:cx="14.952713"
     inkscape:cy="9.5902624"
     inkscape:current-layer="svg2" />
  <defs
     id="defs4">
    <linearGradient
       inkscape:collect="always"
       id="linearGradient4201">
      <stop
         style="stop-color:#ffffff;stop-opacity:1;"
         offset="0"
         id="stop4203" />
      <stop
         style="stop-color:#ececec;stop-opacity:1"
         offset="1"
         id="stop4205" />
    </linearGradient>
    <linearGradient
       id="linearGradient3764"
       x1="0.86984974"
       x2="47.130146"
       gradientUnits="userSpaceOnUse"
       gradientTransform="matrix(0,-0.93478259,0.9347826,0,1.5652161,46.43478)"
       y1="23.644154"
       y2="24.039539">
      <stop
         style="stop-color:#52b8d2;stop-opacity:1"
         id="stop7" />
      <stop
         offset="1"
         style="stop-color:#55ddff;stop-opacity:1"
         id="stop9" />
    </linearGradient>
    <linearGradient
       inkscape:collect="always"
       xlink:href="#linearGradient4201"
       id="linearGradient4207"
       x1="24.039539"
       y1="0.63261861"
       x2="23.802307"
       y2="47.683689"
       gradientUnits="userSpaceOnUse"
       gradientTransform="matrix(0.95833333,0,0,0.95833333,0.99999998,0.99999969)" />
    <clipPath
       clipPathUnits="userSpaceOnUse"
       id="clipPath4252">
      <path
         d="M 24,2.5 C 35.874543,2.5 45.5,12.125457 45.5,24 45.5,35.874543 35.874543,45.5 24,45.5 12.125457,45.5 2.5,35.874543 2.5,24 2.5,12.125457 12.125457,2.5 24,2.5 Z"
         style="fill:url(#linearGradient4256);fill-opacity:1"
         id="path4254"
         inkscape:connector-curvature="0" />
    </clipPath>
    <linearGradient
       inkscape:collect="always"
       xlink:href="#linearGradient3764"
       id="linearGradient4256"
       gradientUnits="userSpaceOnUse"
       gradientTransform="matrix(0,-0.93478259,0.9347826,0,1.5652161,46.43478)"
       x1="0.86984974"
       y1="23.644154"
       x2="47.130146"
       y2="24.039539" />
  </defs>
  <path
     inkscape:connector-curvature="0"
     id="path21"
     style="fill:url(#linearGradient3764);fill-opacity:1"
     d="M 24,2.5 C 35.874543,2.5 45.5,12.125457 45.5,24 45.5,35.874543 35.874543,45.5 24,45.5 12.125457,45.5 2.5,35.874543 2.5,24 2.5,12.125457 12.125457,2.5 24,2.5 Z" />
  <g
     transform="matrix(0.95833333,0,0,0.95833333,1.9583333,1.958333)"
     id="g27">
    <g
       style="opacity:0.1"
       id="g29">
      <!-- color: #62bed6 -->
    </g>
  </g>
  <path
     style="fill:#000000;fill-opacity:0.07843137;fill-rule:nonzero;stroke:none"
     d="M 23.947266 14.4375 C 20.907127 14.437816 17.869488 15.178424 15.552734 16.632812 C 10.928678 19.536812 10.214308 24.364738 13.623047 27.773438 L 15.535156 29.685547 L 14.398438 31.681641 L 27.863281 45.146484 C 36.309503 43.613267 43.031913 37.15113 44.945312 28.84375 L 34.197266 18.095703 C 33.671855 17.570303 33.052905 17.079313 32.341797 16.632812 C 30.025043 15.178424 26.990315 14.440713 23.949219 14.4375 L 23.947266 14.4375 z "
     id="path4174" />
  <path
     inkscape:connector-curvature="0"
     id="path39"
     style="fill:#ffffff;fill-opacity:1;fill-rule:nonzero;stroke:none"
     d="m 24,14.435833 c -3.040792,0.0029 -6.07775,0.738875 -8.395,2.193625 -5.093542,3.198917 -5.443333,8.733292 -0.763792,12.1325 0.430292,0.306667 0.819375,0.595125 0.86825,0.6325 l -1.29375,2.276042 1.4375,0 8.145834,-13.298792 8.145833,13.298792 1.4375,0 -1.29375,-2.276042 c 0.04887,-0.03738 0.437958,-0.325833 0.86825,-0.6325 4.679542,-3.399208 4.32975,-8.934541 -0.763792,-12.1325 -2.31725,-1.45475 -5.35325,-2.19075 -8.395,-2.193625 m -0.924791,1.608084 -5.611042,10.369166 c -0.131292,0.119792 -1.478708,-0.830875 -2.15625,-1.52375 -3.43275,-3.515166 0,-7.928291 6.79075,-8.766833 0.520375,-0.05654 0.9775,-0.07858 0.9775,-0.07858 z m 1.849583,0 c 0,0 0.457125,0.02204 0.9775,0.07858 6.79075,0.838542 10.2235,5.251667 6.79075,8.766833 -0.677542,0.692875 -2.024958,1.643542 -2.15625,1.52375 z m -0.924792,7.002541 -2.395833,4.310584 2.395833,4.314416 2.395834,-4.314416"
     sodipodi:nodetypes="cccccccccccccccccccccccccccc" />
  <path
     d="M 24,1.958333 C 36.173708,1.958333 46.041667,11.826292 46.041667,24 46.041667,36.173708 36.173708,46.041667 24,46.041667 11.826292,46.041667 1.9583333,36.173708 1.9583333,24 1.9583333,11.826292 11.826292,1.958333 24,1.958333 Z"
     style="fill:none;fill-opacity:1;stroke:url(#linearGradient4207);stroke-width:1.91666663;stroke-miterlimit:4;stroke-dasharray:none"
     id="path4199"
     inkscape:connector-curvature="0" />
</svg>
